app/dist/common/images/wuhu-token-science.svg

<svg height="18" viewBox="0 0 18 18" width="18" xmlns="http://www.w3.org/2000/svg"><path d="m0 0h18v18h-18z" fill="#f0f3fa"/><path d="m9.02 12.44 1.65 1.56 5.33-5-5.33-5-1.69 1.56-1.65-1.56-5.33 5 5.33 5zm-.35-.33-1.34 1.23-4.63-4.34 1.32-1.24 1.65 1.55 3.31-3.1 1.28 1.2-3.26 3.14 1.67 1.55zm-.04-6.21-1.3-1.23-2.96 2.77 1.3 1.23zm.74 6.22 1.3 1.23 2.96-2.77-1.3-1.23zm-.04-6.22 1.67 1.54-3.26 3.16 1.28 1.19 3.31-3.1 1.65 1.55 1.32-1.24-4.63-4.34-1.34 1.23z" fill="#004c96" fill-rule="evenodd"/></svg>

<!-- by TradingView --><svg width="18" height="18" viewBox="0 0 18 18" xmlns="http://www.w3.org/2000/svg"><path fill="#F0F3FA" d="M0 0h18v18H0z"/><path fill-rule="evenodd" d="M9.02 12.44 10.67 14 16 9l-5.33-5-1.69 1.56L7.33 4 2 9l5.33 5 1.69-1.56Zm-.35-.33-1.34 1.23L2.7 9l1.32-1.24 1.65 1.55 3.31-3.1 1.28 1.2L7 10.55l1.67 1.55ZM8.63 5.9l-1.3-1.23-2.96 2.77 1.3 1.23 2.96-2.77Zm.74 6.22 1.3 1.23 2.96-2.77-1.3-1.23-2.96 2.77ZM9.33 5.9 11 7.44 7.74 10.6l1.28 1.19 3.31-3.1 1.65 1.55L15.3 9l-4.63-4.34-1.34 1.23Z" fill="#004C96"/></svg>
